X:1
T:Title
%%score { ( 1 4 ) | ( 2 3 ) }
L:1/8
Q:1/4=90
M:6/8
K:G
V:1 treble nm="Grand Piano"
V:4 treble 
V:2 bass 
V:3 bass 
V:1
 B2 B c2 B | ABA [B,G]2 [B,D] | E2 G D2 [DG] | [DB]2 [Dd] [DA]3 | [DB]2 [DB] [Ec]2 [DB] | %5
w: Charles~H.~Gabriel * * *|||||
 [CA][DB][CA] [B,G]2 [B,D] | E2 G D2 [Ec] | [DB]2 [CDA] [B,DG]3 | A3 d3 | B3 d3 | ^c2 B A2 A | %11
w: ||||||
 .[B,G]3[K:bass] z3 | c2- [Fc] z2 D | d3 z3 | E2 G D2 [Ec] | [DB]2 [CDA] [B,DG]3 |] %16
w: |||||
V:2
 [G,D]2 [G,D] [G,E]2 [G,D] | CD[D,F,C] [G,,G,]2 [G,,G,] | [C,G,C]2 [C,E,C] [B,,G,]2 [B,,G,] | %3
 [G,,G,]2 [B,,G,] [D,F,]3 | [G,,G,]2 [G,,G,] [G,,G,]2 [G,,G,] | [D,F,]2 [D,F,] [G,,G,]2 [G,,G,] | %6
 [C,G,C]2 [C,E,C] [B,,G,]2 [C,G,] | [D,G,]2 D, G,,3 | D,2 D, [D,D]2 [D,D] | %9
 [G,DG]2 [G,D] [G,B,G]2 [G,B,] | [A,G]2 [A,G] [A,G]2 [A,^CG] | z A,A,, D,3 | %12
 [D,A,]2 [D,A,] [D,CD]2 [D,C] | [G,B,D]2 [G,B,] [G,B,]2 [B,,G,] | %14
 [C,G,C]2 [C,E,C] [B,,G,]2 [C,G,] | [D,G,]2 D, G,,3 |] %16
V:3
 x6 | .[D,F,]3 z3 | x6 | x6 | x6 | x6 | x6 | x6 | x6 | x6 | x6 | .A,,3 z3 | x6 | x6 | x6 | x6 |] %16
V:4
 x6 | x6 | x6 | x6 | x6 | x6 | x6 | x6 | [DF]2 [DF] F2 F | z2 G z2 G | x6 | %11
 ^C-[CF][K:bass][G,CE] [F,D]3 | .F3 F3 | z2 D D2 D | x6 | x6 |] %16

